!!!!SEGMENT:Tefurushibuyou.krn
!!!OTL: 手古舞踊
!!!OPR:Eiga Banso Kyokusyu,jidai-geki,kouhen
!!!YOY:1928
!!!ONB:Buyou
**kern
*clefG2
*k[f#c#]
*D:
*M2/4
=1
8f#L
8bb
8bb
8bbJ
=2
4bb
4r
=3
8f#L
8bb
8bb
8bbJ
=4
4bb
4r
=5
8f#L
8b
8b
8bJ
=6
4b
4b
=7
8f#L
8b
8b
8bJ
=8
8cc#L
8bJ
4g
=9
4f#
8g#XL
8bJ
=10
4.g#X
8e
=11
8f#
8r
8f#L
8eJ
=12
4f#
4r
=13
8f#L
8bbJ
8bbL
8bbJ
=14
4bb
4r
=15
8f#L
8bJ
8bL
8bJ
=16
4b
4b
=17
8f#L
8bJ
8bL
8bJ
=18
8cc#L
8bJ
4g
=19
4r
8r
8f#
=20
4g#X
8aL
8g#J
=21
8f#L
8f#J
8f#L
8f#J
=22
8g#XL
8f#J
4d
=23
8f#L
8f#J
8g#XL
8f#J
=24
8g#XL
8f#J
8dL
8dJ
=25
8c#L
8c#J
8c#L
8BJ
=26
4B
4r
=27
8c#L
8c#J
8c#L
8BJ
=28
4B
4r
=29
8c#L
8c#J
8c#L
8BJ
=30
8c#L
8c#J
8c#L
8eJ
=31
8f#L
8f#J
8f#L
8f#J
=32
4f#
4r
==
*-
!!!ENC: Yukiko Yoden
!!!END: 2023/06/11
